X: 8
T:Hellstadts Brudsmarch
M:2/4
L:1/16
C:Trad. Swedish
S:Eric Sahlstrm
K:C
EF|G3F EFGA|G2(3FGF) E2 EF|GAGE CEGc|e4 B2c2|d3c Bcde|f2(3efe) d2B2|1cBc
d
 edef|g6:|2cdec GBdB|c6g2||a3g fgab|c'6a2|g3f efga|g2(3fgf) e2c2|f3e def
g|f2(3efe)d2c2|edef gfga|g6e2|
a3g fgab|c'6a2|g3f efga|g6GA|c2d2e2c2|B2a2g2B2|d2c2cGed|c6||
